X:359
T: MEIN LIEBCHEN GLEICHT DEM ROESLEIN
N: B0426
O: Europa, Mitteleuropa, Deutschland, Rheinland
R: Liebes - Lied, Liebes - Lust
M: 2/4
L: 1/16
K: F
FG | A2A2A2A2 | BcBcG2
A2 | F2F2AGFG | A4z2
A2 | B2B2G2G2 | c2def2
FG | A2G2BAGd | c4z2
A2 | B2B2AGFG | F4z2

@@@ Tune index: 2162
